X:342
T:Horse & Away to the New Market. RH.342
R:jig
S:Rev.R.Harrison’s MS,c1815,Cumbria
O:England
A:Temple Sowerby,Cumbria
Z:vmp.Simon Wilson. Review PJH, 2008.
M:6/8
L:1/8
Q:3/8=120
K:G
edc BAB|GAG B2g|edc BAG|cAB c2g|\
edc BAB|GAG B2G|cde gdB|ABA c2g:|!
|:GGc BBg|GGc B2g|GGc BBg|AAa f2g|\
GGc BBg|Ggd B2G|cde gdB|ABA c2e:|!
|:ggd eec|ddG B2G|gge ffd|aaA c2e|\
ggd eec|ddG B2G|cde gdB|ABA c2e:|!
|:dB/c/d dB/c/d|dB/c/d/B/ c2e|dB/c/d dcB|ABA c2e|\
d/c/B/c/d/B/ d/c/B/c/d/B/|Gge dBG|\
cd(e/f/) gdB|ABA c2e|]

